24x24/panel/bluetooth-offline.svg

<svg height="24" width="24" xmlns="http://www.w3.org/2000/svg"><path d="m12.5 4a5.165 5.165 0 0 0 -3.031.988l2.531 2.532v-1.52h.5c.208 0 .393.133.469.313l2.875 2.843.406.375-.438.344-.796.66 2.984 2.985v-3.52c0-3.324-2.453-6-5.5-6zm-5.5.5-1.5 1.5 1.865 1.865a6.44 6.44 0 0 0 -.365 2.135v4c0 3.324 2.453 6 5.5 6 1.855 0 3.475-1.005 4.469-2.531l1.031 1.031 1.5-1.5-1.645-1.645-3.921-3.921-.694-.694-.24-.24-1-1-3.553-3.553zm6 3.188v.832l1.326 1.326.455-.377zm-1.387 4.425 1.387 1.387v2.813l1.406-1.407.684.684-2.121 2.097c-.025.06-.08.112-.125.157a.484.484 0 0 1 -.344.156h-.5v-4.938l-2.156 1.782a.485.485 0 0 1 -.344.156h-.5v-.5c0-.153.079-.283.188-.375z" fill="#8b9cbe" opacity=".3"/></svg>

<svg xmlns="http://www.w3.org/2000/svg" width="24" height="24"><defs><style id="current-color-scheme" type="text/css"></style></defs><path style="opacity:.3;fill:currentColor;color:#8b9cbe" d="M12.5 4a5.165 5.165 0 0 0-3.031.988L12 7.52V6h.5c.208 0 .393.133.469.313l2.875 2.843.406.375-.438.344-.796.66L18 13.52V10c0-3.324-2.453-6-5.5-6zM7 4.5 5.5 6l1.865 1.865A6.44 6.44 0 0 0 7 10v4c0 3.324 2.453 6 5.5 6 1.855 0 3.475-1.005 4.469-2.531L18 18.5l1.5-1.5-1.645-1.645-3.921-3.921-.694-.694-.24-.24-1-1-3.553-3.553zm6 3.188v.832l1.326 1.326.455-.377zm-1.387 4.425L13 13.5v2.813l1.406-1.407.684.684-2.121 2.097c-.025.06-.08.112-.125.157A.484.484 0 0 1 12.5 18H12v-4.938l-2.156 1.782A.485.485 0 0 1 9.5 15H9v-.5c0-.153.079-.283.188-.375z"/></svg>
